X:120
T:Blackthorn Stick #1, The
C:Joe Buchanan's Scottish Tome - Page 231.1
I:231 1
Z:Carl Allison
R:Jig
S:Irish Jigs
L:1/8
M:6/8
K:A
e | "A"aga "D"faf | "A"ecA "D"BAF | "A"EAA "E"GAB | "A"ABc "E7"B2 e |
"A"aga "D"baf | "A"ecA "D"BAF | "A"EAA "E"GAB | "A"cAA A2 :|
e | "D"fee "A"aee | "D"fee "A"aee | "D"fee "A"agf | "A"edc"E7"B2 e |
"A"aga "D"baf | "A"ecA "D"BAF | "A"EAA "E"GAB | "A"cAA A2 :|

